!!!!SEGMENT: pl-kk--kk-i-6--047-004_anonim--missa-conceptionis-agnus-dei.krn
!!!cenid: 16xx:1043
!!!COM: Anonim
!!!COM-rismID: pe30004985
!!!CDT:
!!!CNT:
!!!OPR: Missa Conceptionis
!!!OTL: Agnus Dei
!!!OMV: 004
!!!PDT:
!!!AGN: Sacred; Mass
!!!SMS-siglum: PL-Kk
!!!SMS-shelfmark: Kk.I.6
!!!SMS-shelfwork: 047-004 M
!!!SMS-variant:
!!!SMS-altvar:
!!!NIFC-rismSourceID: 1001135513
!!!NIFC-rismChildID: 1001136539
!!!NIFC-islandoraID: pl-kk:1634
!!!URL-pdf-islandora: https://repozytorium.nifc.pl/islandora/object/pl-kk%3A1634/datastream/PDF/view
!!!URL-scan: https://polish.musicsources.pl/pl/lokalizacje/galeria/rekopisy/6133 @EN{Scan on Polish Music Sources Website} @PL{Skany w portalu Dziedzictwo Muzyki Polskiej w otwartym dostępie}
!!!IIIF:
!!!ONB-nifc: UWAGA: C (skan 0068-0071, s. 133-138), T (skan 0180-0182, s. 165-169), B (skan 0289-0290, s. 160-163) Części Mszy: 1. Kyrie, 2. Et in terra, 3. Sanctus, 4. Agnus Dei
!!!AIN: 1 empty 1 tenor 1 vox
!!!key:
**kern	**text	**kern	**text	**kern	**text
*part3	*part3	*part2	*part2	*part1	*part1
*staff3	*staff3	*staff2	*staff2	*staff1	*staff1
*Iempty	*	*Itenor	*	*Ivox	*
*I"Baſsus.	*	*I"Tenor.	*	*I"Cantus.	*
*I'B	*	*I'T	*	*I'S	*
*clefF4	*	*clefC4	*	*clefC1	*
*k[b-]	*	*k[b-]	*	*k[b-]	*
*g:	*	*g:	*	*g:	*
*M2/1	*	*M2/1	*	*M2/1	*
*met(c|)	*	*met(c|)	*	*met(c|)	*
=1	=1	=1	=1	=1	=1
!LO:TX:t=P:problem=BB- scalone z kluczem	!	!LO:TX:t=P:problem=kreska pseudotaktowa	!	!LO:TX:t=P:problem=b- scalone z kluczem	!
!LO:TX:t=P:problem=kreska pseudotaktowa	!	!	!	!	!
00r	.	1r	.	2.g/	A-
!	!	!	!	!LO:TX:t=P:problem=kreska pseudotaktowa	!
!	!	!	!	!LO:TX:t=P:problem=4\left or middle&colon; global	!
.	.	.	.	4a\	.
.	.	1G/	A-	4b-\	.
.	.	.	.	4cc\	.
.	.	.	.	4dd\	.
.	.	.	.	8cc\L	.
!	!	!	!	!LO:TX:t=P:problem=kreska pseudotaktowa	!
.	.	.	.	8b-\J	.
=2-	=2-	=2-	=2-	=2-	=2-
*	*	*	*	*2\right	*
.	.	2A/	-gnus	2cc\	.
*	*	*2\right	*	*	*
.	.	2B-\	De-	1dd\	.
!	!	!LO:TX:t=P:problem=kreska pseudotaktowa	!	!	!
.	.	1A\	-i	.	.
!	!	!	!	!LO:TX:t=P:problem=kreska pseudotaktowa	!
.	.	.	.	2cc\	-gnus
=3-	=3-	=3-	=3-	=3-	=3-
0G\	A-	2r	.	4dd\	De-
.	.	.	.	4cc\	.
.	.	4G/	A-	4b-\	.
!	!	!LO:TX:t=P:problem=kreska pseudotaktowa	!	!LO:TX:t=P:problem=kreska pseudotaktowa	!
.	.	4A/	.	4a\	.
!	!	!LO:TX:t=P:problem=4\left or middle&colon; global	!	!	!
.	.	4B-\	.	4g\	.
.	.	4c\	.	4a\	.
!	!	!	!	!LO:TX:t=P:problem=kreska pseudotaktowa	!
.	.	4d\	.	2b-\	.
!	!	!LO:TX:t=P:problem=kreska pseudotaktowa	!	!	!
.	.	4B-\	.	.	.
=4-	=4-	=4-	=4-	=4-	=4-
*2\right	*	*	*	*	*
2F\	-gnus	2c\	-gnus	2a\	.
!LO:TX:t=P:problem=4\left or middle&colon; global	!	!	!	!	!
4E-X\	.	1d\	De-	4g/	.
!LO:TX:t=P:problem=kreska pseudotaktowa	!	!	!	!	!
4D/	.	.	.	4f/	.
!	!	!	!	!LO:TX:t=P:problem=kreska pseudotaktowa	!
!	!	!	!	!LO:LB:g=original	!
1E-\	De-	.	.	1g\	.
.	.	2c\	.	.	.
=5-	=5-	=5-	=5-	=5-	=5-
!	!	!LO:TX:t=P:problem=kreska pseudotaktowa	!	!LO:TX:t=P:global:problem=rozdzielacz słów	!
2D/	-i	1d\	-i	2f,</	-i
!LO:TX:t=P:problem=kreska pseudotaktowa	!	!	!	!LO:TX:t=P:problem=kreska pseudotaktowa	!
*	*ij	*	*	*	*
2GG/	A-	.	.	2g/	A-
!	!	!LO:TX:t=P:problem=kreska pseudotaktowa	!	!	!
2AA/	-gnus	1r	.	2f/	-gnus
2BB-/	De-	.	.	4e/	De-
.	.	.	.	4d/	.
=6-	=6-	=6-	=6-	=6-	=6-
!LO:TX:t=P:problem=kreska pseudotaktowa	!	!	!	!	!
1AA/	-i	2r	.	2en/	.
*	*Xij	*	*	*	*
!	!	!	!	!LO:TX:t=P:problem=kreska pseudotaktowa	!
.	.	2A/	qui	2e/	.
2r	.	2B-\	tol-	2d,</	-i
!LO:TX:t=P:problem=kreska pseudotaktowa	!	!LO:TX:t=P:problem=kreska pseudotaktowa	!	!LO:TX:t=P:problem=kreska pseudotaktowa	!
!	!	!LO:LB:g=original	!	!	!
2D/	qui	2A/	-lis	2f/	qui
=7-	=7-	=7-	=7-	=7-	=7-
2D/	tol-	1d\	pec-	2f/	tol-
!LO:TX:t=P:problem=kreska pseudotaktowa	!	!	!	!LO:TX:t=P:problem=kreska pseudotaktowa	!
2D/	-lis	.	.	2f/	-lis
!LO:LB:g=original	!	!	!	!	!
1G\	pec-	1B-\	-ca-	2g/	pec-
.	.	.	.	1b-\	-ca-
=8-	=8-	=8-	=8-	=8-	=8-
!LO:TX:t=P:problem=kreska pseudotaktowa	!	!LO:TX:t=P:problem=kreska pseudotaktowa	!	!	!
1F\	-ca-	1c\	-ta	.	.
!	!	!	!	!LO:TX:t=P:problem=kreska pseudotaktowa	!
.	.	.	.	2a\	-ta
2BB-/	-ta	2.d\	mun-	2.b-\	mun-
1B-\	mun-	.	.	.	.
!	!	!LO:TX:t=P:problem=kreska pseudotaktowa	!	!	!
.	.	4c\	.	4a\	.
=9-	=9-	=9-	=9-	=9-	=9-
.	.	4B-\	.	2g/	.
.	.	4G/	.	.	.
!LO:TX:t=P:problem=kreska pseudotaktowa	!	!	!	!	!
2A\	.	2.c\	.	1f/	.
1G\	.	.	.	.	.
.	.	4B-\	.	.	.
!	!	!	!	!LO:TX:t=P:problem=kreska pseudotaktowa	!
!	!	!	!	!LO:LB:g=original	!
.	.	1B-\	.	2e/	.
=10-	=10-	=10-	=10-	=10-	=10-
!LO:TX:t=P:problem=kreska pseudotaktowa	!	!	!	!	!
1F\	-di	.	.	2f/	-di
!	!	!LO:TX:t=P:problem=kreska pseudotaktowa	!	!	!
.	.	2A/	.	1f/	mi-
!	!	!LO:TX:t=P:global:problem=rozdzielacz słów	!	!	!
2r	.	2B-,<\	-di	.	.
1BB-/	mi-	2d\	mi-	2f/	-se-
=11-	=11-	=11-	=11-	=11-	=11-
!	!	!	!	!LO:TX:t=P:problem=kreska pseudotaktowa	!
.	.	2d\	-se-	1f/	-re-
!LO:TX:t=P:problem=kreska pseudotaktowa	!	!LO:TX:t=P:problem=kreska pseudotaktowa	!	!	!
2BB-/	-se-	2d\	-re-	.	.
2C/	-re-	2c\	-re	2e/	-re
2D/	-re	1B-\	no-	1d/	no-
=12-	=12-	=12-	=12-	=12-	=12-
1E-X\	no-	.	.	.	.
!	!	!	!	!LO:TX:t=P:problem=kreska pseudotaktowa	!
.	.	4A/	.	2c/	.
.	.	4G/	.	.	.
!	!	!LO:LB:g=original	!	!	!
0D\	-bis	2F/	.	2d/	-bis.
!	!	!	!	!LO:TX:t=P:problem=kreska pseudotaktowa	!
.	.	4D/	.	2dd\	mi-
!	!	!LO:TX:t=P:problem=kreska pseudotaktowa	!	!	!
.	.	4E/	.	.	.
=13-	=13-	=13-	=13-	=13-	=13-
!LO:TX:t=P:problem=kreska pseudotaktowa	!	!	!	!	!
.	.	4F/	.	2dd\	-se-
.	.	4G/	.	.	.
!	!	!	!	!LO:TX:t=P:problem=kreska pseudotaktowa	!
.	.	1A\	.	2dd\	-re-
2r	.	.	.	2cc\	-re
2G\	mi-	2B-\	.	1b-\	no-
=14-	=14-	=14-	=14-	=14-	=14-
!	!	!LO:TX:t=P:problem=kreska pseudotaktowa	!	!	!
2G\	-se-	2G,</	-bis	.	.
!LO:TX:t=P:problem=kreska pseudotaktowa	!	!	!	!	!
2G\	-re-	2d\	mi-	4a\	.
!	!	!	!	!LO:TX:t=P:problem=kreska pseudotaktowa	!
.	.	.	.	4g\	.
2.D\	-re	2d\	-se-	4f/	.
.	.	.	.	4g/	.
!	!	!LO:TX:t=P:problem=kreska pseudotaktowa	!	!	!
.	.	2d\	-re-	1a\	.
4Eny\	.	.	.	.	.
=15-	=15-	=15-	=15-	=15-	=15-
!LO:PB:g=original	!	!	!	!	!
2F\	.	2c\	-re	.	.
2G\	.	2B-\	no-	1g\	.
1D\	no-	1A\	.	.	.
.	.	.	.	2f#X/	.
=16-	=16-	=16-	=16-	=16-	=16-
0GG/;	-bis.	0G/;	-bis.	0g\;	-bis.
=17||	=17||	=17||	=17||	=17||	=17||
*M2/1	*	*M2/1	*	*M2/1	*
*met(c|)	*	*met(c|)	*	*met(c|)	*
!	!	!LO:TX:t=P:problem=kreska pseudotaktowa	!	!LO:PB:g=original	!
1D\	A-	1d\	A-	1r	.
2F\	-gnus	2c\	-gnus	2r	.
2G\	De-	2B-\	De-	1g\	A-
=18-	=18-	=18-	=18-	=18-	=18-
!LO:TX:t=P:problem=kreska pseudotaktowa	!	!LO:TX:t=P:problem=kreska pseudotaktowa	!	!	!
1D\	-i	1A\	-i	.	.
!	!	!	!	!LO:TX:t=P:problem=kreska pseudotaktowa	!
.	.	.	.	2f/	-gnus
!	!	!LO:LB:g=original	!	!	!
0r	.	2r	.	2e-X/	.
!	!	!LO:TX:t=P:problem=przekreślona synkopowana wartość	!	!LO:TX:t=P:problem=kreska pseudotaktowa	!
*	*	*	*ij	*	*
.	.	1d\	A-	2d/	De-
=19-	=19-	=19-	=19-	=19-	=19-
.	.	.	.	1e-/	.
!	!	!LO:TX:t=P:problem=kreska pseudotaktowa	!	!	!
.	.	2c\	-gnus	.	.
!	!	!	!	!LO:TX:t=P:problem=kreska pseudotaktowa	!
1G\	A-	1B-\	De-	1d/	-i
=20-	=20-	=20-	=20-	=20-	=20-
2F\	-gnus	2A/	.	2rc	.
!LO:TX:t=P:problem=kreska pseudotaktowa	!	!	!	!	!
*	*	*	*	*	*ij
2E-X\	De-	2G/	.	1g\	A-
!	!	!LO:TX:t=P:problem=kreska pseudotaktowa	!	!	!
4D\	.	1d\	-i	.	.
*	*	*	*Xij	*	*
4En\	.	.	.	.	.
4F\	.	.	.	2f/	-gnus
4G\	.	.	.	.	.
=21-	=21-	=21-	=21-	=21-	=21-
!	!	!LO:TX:t=P:problem=kreska pseudotaktowa	!	!	!
2A\	.	1r	.	2en/	De-
2B-\	.	.	.	2d/	.
!LO:LB:g=original	!	!	!	!	!
1A\	.	2r	.	1en/	.
.	.	2A/	qui	.	.
=22-	=22-	=22-	=22-	=22-	=22-
2D/	-i	2A/	tol-	0f/	-i
*	*	*	*	*	*Xij
!LO:TX:t=P:problem=kreska pseudotaktowa	!	!LO:TX:t=P:problem=kreska pseudotaktowa	!	!	!
2D/	qui	2A/	-lis	.	.
2D/	tol-	2B-\	pec-	.	.
2D/	-lis	2A/	-ca-	.	.
=23-	=23-	=23-	=23-	=23-	=23-
2E-X\	pec-	2G/	-ta	1r	.
!LO:TX:t=P:problem=kreska pseudotaktowa	!	!	!	!	!
2D/	-ca-	2.A/	mun-	.	.
2C/	-ta	.	.	2r	.
.	.	4G/	.	.	.
!	!	!	!	!LO:TX:t=P:problem=kreska pseudotaktowa	!
2.D/	mun-	4F/	.	2f/	qui
!	!	!LO:TX:t=P:problem=kreska pseudotaktowa	!	!	!
.	.	4E/	.	.	.
=24-	=24-	=24-	=24-	=24-	=24-
.	.	2D/	.	2f/	tol-
4C/	.	.	.	.	.
4BB-/	.	2.B-\	.	2f/	-lis
!LO:TX:t=P:problem=kreska pseudotaktowa	!	!	!	!	!
4AA/	.	.	.	.	.
!	!	!	!	!LO:LB:g=original	!
2GG/	.	.	.	1g\	pec-
.	.	4A/	.	.	.
!	!	!LO:LB:g=original	!	!	!
2BB-/	.	1G/	.	.	.
=25-	=25-	=25-	=25-	=25-	=25-
1AA/	.	.	.	1a\	-ca-
.	.	2F#X/	.	.	.
!LO:TX:t=P:problem=kreska pseudotaktowa	!	!LO:TX:t=P:problem=kreska pseudotaktowa	!	!	!
1GG/	-di	1G/	-di	1.b-\	.
=26-	=26-	=26-	=26-	=26-	=26-
0rBB	.	2r	.	.	.
.	.	2Fny/	do-	4a\	.
!	!	!	!	!LO:TX:t=P:problem=kreska pseudotaktowa	!
.	.	.	.	4g/	.
.	.	2F/	-na	2a\	.
!	!	!LO:TX:t=P:problem=kreska pseudotaktowa	!	!	!
.	.	2G/	no-	2.g/	.
=27-	=27-	=27-	=27-	=27-	=27-
2rGG	.	2A/	-bis	.	.
.	.	.	.	4f/	.
!LO:TX:t=P:problem=kreska pseudotaktowa	!	!	!	!	!
2BB-/	do-	2.B-\	pa-	1f/	.
2BB-/	-na	.	.	.	.
.	.	4A\	.	.	.
!	!	!LO:TX:t=P:problem=kreska pseudotaktowa	!	!LO:TX:t=P:problem=kreska pseudotaktowa	!
2C/	no-	2G/	.	2e/	-ta
=28-	=28-	=28-	=28-	=28-	=28-
!LO:LB:g=original	!	!	!	!	!
2D/	-bis	2F/	.	2d/	mun-
!	!	!	!	!LO:TX:t=P:problem=kreska pseudotaktowa	!
2E-X\	pa-	1G/	.	2cn/	.
!LO:TX:t=P:problem=kreska pseudotaktowa	!	!	!	!	!
1D\	.	.	.	0d/	-di
.	.	2F#X/	.	.	.
=29-	=29-	=29-	=29-	=29-	=29-
!LO:TX:t=P:global:problem=rozdzielacz słów	!	!LO:TX:t=P:problem=kreska pseudotaktowa	!	!	!
2GG,</	-cem	1G/	-cem.	.	.
2G\	do-	.	.	.	.
2G\	-na	1r	.	2rc	.
!LO:TX:t=P:problem=kreska pseudotaktowa	!	!	!	!LO:TX:t=P:problem=kreska pseudotaktowa	!
2F\	no-	.	.	2f/	Do-
=30-	=30-	=30-	=30-	=30-	=30-
2B-\	-bis	2r	.	2f/	-na
!	!	!LO:TX:t=P:problem=kreska pseudotaktowa	!	!	!
2G\	pa-	2B-\	do-	2g/	no-
4F\	.	2c\	-na	2a\	-bis
4Eny\	.	.	.	.	.
4D/	.	1d\	no-	1b-\	pa-
!LO:TX:t=P:problem=kreska pseudotaktowa	!	!	!	!	!
4C/	.	.	.	.	.
=31-	=31-	=31-	=31-	=31-	=31-
2BB-/	.	.	.	.	.
!	!	!LO:LB:g=original	!	!LO:LB:g=original	!
2C/	.	4c\	.	4a\	.
!	!	!LO:TX:t=P:problem=kreska pseudotaktowa	!	!LO:TX:t=P:problem=kreska pseudotaktowa	!
.	.	4B-\	.	4g/	.
2D/	.	2A/	.	2f/	.
!LO:TX:t=P:problem=kreska pseudotaktowa	!	!	!	!	!
2E-X\	.	2G/	-bis	1g\	.
=32-	=32-	=32-	=32-	=32-	=32-
*	*	*lig	*	*	*
0D\	.	1B-\	pa-	.	.
!	!	!	!	!LO:TX:t=P:problem=♯ below	!
.	.	.	.	4f#X/	.
.	.	.	.	4e/	.
.	.	1A\	.	1f#X/	.
*	*	*Xlig	*	*	*
=33-	=33-	=33-	=33-	=33-	=33-
!	!	!	!	!LO:TX:b:t=8	!
2GG,</	-cem	2G/	-cem	[0g\;l	-cem.
!LO:TX:t=P:problem=kreska pseudotaktowa	!	!LO:TX:t=P:problem=kreska pseudotaktowa	!	!	!
2G\	do-	2B-\	do-	.	.
2G\	-na	2B-\	-na	.	.
!LO:TX:t=P:problem=kreska pseudotaktowa	!	!	!	!	!
!LO:LB:g=original	!	!	!	!	!
2C/	no-	2c\	no-	.	.
=34-	=34-	=34-	=34-	=34-	=34-
1.G\	-bis	1.d\	-bis	0g\_	.
*	*	*lig	*	*	*
1C/	pa-	1e-X\	pa-	.	.
=35-	=35-	=35-	=35-	=35-	=35-
.	.	.	.	0g\_	.
!LO:TX:t=P:problem=kreska pseudotaktowa	!	!	!	!	!
!LO:N:acc=#	!	!	!	!	!
2BBn/	.	1d\	.	.	.
1C/	.	.	.	.	.
*	*	*Xlig	*	*	*
.	.	1c\	.	.	.
=36-	=36-	=36-	=36-	=36-	=36-
0GG/;;	-cem.	.	.	0g\]	.
!	!	!LO:N:acc=#	!	!	!
.	.	4Bn\	.	.	.
.	.	4A\	.	.	.
!	!	!LO:N:acc=#	!	!	!
.	.	1Bn\;;	-cem.	.	.
==	==	==	==	==	==
*-	*-	*-	*-	*-	*-
!!!RDF**kern: l = terminal long
!!!RDF**kern: > = above
!!!RDF**kern: < = below
!!!system-decoration: [(s1,s2,s3)]
!!!EED: Andrzej Borzym
!!!EEV: 2021-03-24
!!!ENC: Andrzej Kubiczek
!!!END: 2021-03-10
!!!YEC: Copyright 2022 Narodowy Instytut Fryderyka Chopina (https://polishscores.org)
!!!YEM: License CC-BY-4.0 (https://creativecommons.org/licenses/by/4.0)
